src/symbols/other-symbol/1F4DB.svg

<svg id="emoji" viewBox="0 0 72 72" xmlns="http://www.w3.org/2000/svg">
  <g id="grid">
    <path fill="#b3b3b3" d="M68,4V68H4V4H68m4-4H0V72H72V0Z"/>
    <path fill="none" stroke="#00a5ff" stroke-miterlimit="10" stroke-width="0.1" d="M12.923,10.9583H59.0769A1.9231,1.9231,0,0,1,61,12.8814V59.0352a1.9231,1.9231,0,0,1-1.9231,1.9231H12.9231A1.9231,1.9231,0,0,1,11,59.0352V12.8813A1.923,1.923,0,0,1,12.923,10.9583Z"/>
    <rect x="16" y="4" rx="2.2537" ry="2.2537" width="40" height="64" fill="none" stroke="#00a5ff" stroke-miterlimit="10" stroke-width="0.1"/>
    <rect x="16" y="4" rx="2.2537" ry="2.2537" width="40" height="64" transform="translate(72) rotate(90)" fill="none" stroke="#00a5ff" stroke-miterlimit="10" stroke-width="0.1"/>
    <circle cx="36" cy="36" r="29" fill="none" stroke="#00a5ff" stroke-miterlimit="10" stroke-width="0.1"/>
  </g>
  <g id="color">
    <path fill="#ea5a47" d="M52.1576,7.41l-7.652,17.1477L36.1566,7,27.9337,24.5572,19.45,7.4744S6.6522,23.6645,6.6522,38.8005,22.32,65,35.8392,65H36.6c13.52,0,27.9646-11.0636,27.9646-26.1995S52.1576,7.41,52.1576,7.41Z"/>
    <path fill="#d22f27" d="M25.452,31.01H51.958a2.9184,2.9184,0,0,1,2.9184,2.9184v17.133A2.9184,2.9184,0,0,1,51.958,53.98H20.8318a2.9184,2.9184,0,0,1-2.9184-2.9184V38.5485A7.5386,7.5386,0,0,1,25.452,31.01Z"/>
    <rect x="19.0221" y="31.7258" rx="2.9184" ry="2.9184" width="33.071" height="19.7312" fill="#fff"/>
  </g>
  <g id="line">
    <path fill="none" stroke="#000" stroke-linecap="round" stroke-linejoin="round" stroke-width="2" d="M52.1576,7.41l-7.652,17.1477L36.1566,7,27.9337,24.5572,19.45,7.4744S6.6522,23.6645,6.6522,38.8005,22.32,65,35.8392,65H36.6c13.52,0,27.9646-11.0636,27.9646-26.1995S52.1576,7.41,52.1576,7.41Z"/>
    <rect x="19.0221" y="31.7258" rx="2.9184" ry="2.9184" width="33.071" height="19.7312" fill="none" stroke="#000" stroke-linecap="round" stroke-linejoin="round" stroke-width="2"/>
  </g>
</svg>

<svg viewBox="0 0 72 72" xmlns="http://www.w3.org/2000/svg"><path fill="#b3b3b3" d="M68 4v64H4V4h64m4-4H0v72h72V0z"/><path fill="none" stroke="#00a5ff" stroke-miterlimit="10" stroke-width=".1" d="M12.923 10.958h46.154A1.923 1.923 0 0161 12.881v46.154a1.923 1.923 0 01-1.923 1.923H12.923A1.923 1.923 0 0111 59.035V12.881a1.923 1.923 0 011.923-1.923z"/><rect x="16" y="4" rx="2.254" ry="2.254" width="40" height="64" fill="none" stroke="#00a5ff" stroke-miterlimit="10" stroke-width=".1"/><rect x="16" y="4" rx="2.254" ry="2.254" width="40" height="64" transform="rotate(90 36 36)" fill="none" stroke="#00a5ff" stroke-miterlimit="10" stroke-width=".1"/><circle cx="36" cy="36" r="29" fill="none" stroke="#00a5ff" stroke-miterlimit="10" stroke-width=".1"/><g stroke-linecap="round" stroke-miterlimit="10" stroke-width="6" stroke="#fff" fill="none" stroke-linejoin="round"><path d="M52.158 7.41l-7.652 17.148L36.156 7l-8.222 17.557L19.45 7.474S6.652 23.664 6.652 38.8 22.32 65 35.84 65h.761c13.52 0 27.965-11.064 27.965-26.2S52.158 7.41 52.158 7.41z"/><rect x="19.022" y="31.726" rx="2.918" ry="2.918" width="33.071" height="19.731"/></g><path fill="#ea5a47" d="M52.158 7.41l-7.652 17.148L36.156 7l-8.222 17.557L19.45 7.474S6.652 23.664 6.652 38.8 22.32 65 35.84 65h.761c13.52 0 27.965-11.064 27.965-26.2S52.158 7.41 52.158 7.41z"/><path fill="#d22f27" d="M25.452 31.01h26.506a2.918 2.918 0 012.918 2.918v17.133a2.918 2.918 0 01-2.918 2.919H20.832a2.918 2.918 0 01-2.919-2.918V38.548a7.539 7.539 0 017.539-7.538z"/><rect x="19.022" y="31.726" rx="2.918" ry="2.918" width="33.071" height="19.731" fill="#fff"/><g fill="none" stroke="#000" stroke-linecap="round" stroke-linejoin="round" stroke-width="2"><path d="M52.158 7.41l-7.652 17.148L36.156 7l-8.222 17.557L19.45 7.474S6.652 23.664 6.652 38.8 22.32 65 35.84 65h.761c13.52 0 27.965-11.064 27.965-26.2S52.158 7.41 52.158 7.41z"/><rect x="19.022" y="31.726" rx="2.918" ry="2.918" width="33.071" height="19.731"/></g></svg>
